images/home.svg

<svg xmlns="http://www.w3.org/2000/svg" width="8in" height="8in" viewBox="0 0 576 576"><path d="M443.1 267.4L311.8 137.3a35.6 35.6 0 0 0-50 .2l-129.1 130a34.7 34.7 0 0 0-10.3 24.9v121.1a35.5 35.5 0 0 0 35.4 35.4h65.9a36.1 36.1 0 0 0 36-36.1v-77.6a10.6 10.6 0 0 1 10.6-10.5h35.4a10.6 10.6 0 0 1 10.6 10.5v77.6a36.1 36.1 0 0 0 36 36.1h65.9a35.5 35.5 0 0 0 35.4-35.4v-121a35.3 35.3 0 0 0-10.5-25.1zm-137.4 32.4h-35.4a35.5 35.5 0 0 0-35.4 35.4v77.6a11.2 11.2 0 0 1-11.2 11.2h-65.9a10.6 10.6 0 0 1-10.6-10.5V292.4a10.4 10.4 0 0 1 3.1-7.4l129.2-129.9a10.4 10.4 0 0 1 14.8-.1l131.3 130a10.7 10.7 0 0 1 3.2 7.5v121a10.6 10.6 0 0 1-10.6 10.5h-65.9a11.2 11.2 0 0 1-11.2-11.2v-77.6a35.5 35.5 0 0 0-35.4-35.4z"/></svg>

<svg id="Layer_1" data-name="Layer 1" xmlns="http://www.w3.org/2000/svg" width="8in" height="8in" viewBox="0 0 576 576"><title>home</title><path d="M443.1,267.4,311.8,137.3a35.6,35.6,0,0,0-50,.2l-129.1,130a34.7,34.7,0,0,0-10.3,24.9V413.5a35.5,35.5,0,0,0,35.4,35.4h65.9a36.1,36.1,0,0,0,36-36.1V335.2a10.6,10.6,0,0,1,10.6-10.5h35.4a10.6,10.6,0,0,1,10.6,10.5v77.6a36.1,36.1,0,0,0,36,36.1h65.9a35.5,35.5,0,0,0,35.4-35.4v-121A35.3,35.3,0,0,0,443.1,267.4ZM305.7,299.8H270.3a35.5,35.5,0,0,0-35.4,35.4v77.6A11.2,11.2,0,0,1,223.7,424H157.8a10.6,10.6,0,0,1-10.6-10.5V292.4a10.4,10.4,0,0,1,3.1-7.4L279.5,155.1a10.4,10.4,0,0,1,14.8-.1L425.6,285a10.7,10.7,0,0,1,3.2,7.5v121A10.6,10.6,0,0,1,418.2,424H352.3a11.2,11.2,0,0,1-11.2-11.2V335.2A35.5,35.5,0,0,0,305.7,299.8Z"/></svg>
